svgs/sharp-solid/grid.svg

<svg xmlns="http://www.w3.org/2000/svg" viewBox="0 0 448 512"><!--! Font Awesome Pro 6.6.0 by @fontawesome - https://fontawesome.com License - https://fontawesome.com/license (Commercial License) Copyright 2024 Fonticons, Inc. --><path d="M0 32l128 0 0 128L0 160 0 32zM0 192l128 0 0 128L0 320 0 192zM128 352l0 128L0 480 0 352l128 0zM160 32l128 0 0 128-128 0 0-128zM288 192l0 128-128 0 0-128 128 0zM160 352l128 0 0 128-128 0 0-128zM448 32l0 128-128 0 0-128 128 0zM320 192l128 0 0 128-128 0 0-128zM448 352l0 128-128 0 0-128 128 0z"/></svg>

<svg xmlns="http://www.w3.org/2000/svg" viewBox="0 0 448 512"><!--! Font Awesome Pro 6.5.2 by @fontawesome - https://fontawesome.com License - https://fontawesome.com/license (Commercial License) Copyright 2024 Fonticons, Inc. --><path d="M0 32H128V160H0V32zM0 192H128V320H0V192zM128 352V480H0V352H128zM160 32H288V160H160V32zM288 192V320H160V192H288zM160 352H288V480H160V352zM448 32V160H320V32H448zM320 192H448V320H320V192zM448 352V480H320V352H448z"/></svg>
